pieces/shapes/bw.svg

<svg height="200" viewBox="0 0 200 200" width="200" xmlns="http://www.w3.org/2000/svg"><filter id="a" height="150%" width="150%"><feGaussianBlur in="SourceAlpha" result="blur" stdDeviation="3"/><feColorMatrix in="blur" result="blurAlpha" values="2 0 0 0 0 0 2 0 0 0 0 0 2 0 0 0 0 0 0.5 0"/><feOffset dx="4.5" dy="4.5" in="blurAlpha" result="offsetBlur"/><feBlend in="SourceGraphic" in2="offsetBlur"/></filter><path d="M68.787 40.503L100 71.716l31.213-31.213 35.356-7.072-7.072 35.356L128.284 100l31.213 31.213 7.072 35.356-35.356-7.072L100 128.284l-31.213 31.213-35.356 7.072 7.072-35.356L71.716 100 40.503 68.787 33.43 33.43z" fill="#fff" fill-rule="evenodd" stroke="#000" stroke-width="6" stroke-linejoin="bevel" filter="url(#a)"/></svg>

<svg width="200" height="200" viewBox="0 0 200 200" fill="none" xmlns="http://www.w3.org/2000/svg">
<path fill-rule="evenodd" clip-rule="evenodd" d="M68.787 40.503L100 71.716L131.213 40.503L166.569 33.431L159.497 68.787L128.284 100L159.497 131.213L166.569 166.569L131.213 159.497L100 128.284L68.787 159.497L33.431 166.569L40.503 131.213L71.716 100L40.503 68.787L33.43 33.43L68.787 40.503Z" fill="white" stroke="black" stroke-width="6" stroke-linejoin="bevel"/>
</svg>
